icons/linear-ele-media-sound-headset-headphone.svg

<svg xmlns="http://www.w3.org/2000/svg" width="32px" height="32px" viewBox="0 0 32 32" version="1.1">
    <title>linear-ele-media-sound-headset-headphone</title>
    <g id="linear-ele-media-sound-headset-headphone" stroke-width="1" fill-rule="evenodd">
        <path d="M30,25 C30,27.209139 28.209139,29 26,29 C23.790861,29 22,27.209139 22,25 L22,21 C22,18.790861 23.790861,17 26,17 C26.7290322,17 27.4125119,17.1950335 28.0011092,17.5357707 L28,17 C28,10.372583 22.627417,5 16,5 C9.372583,5 4,10.372583 4,17 L3.99987956,17.5351985 C4.58825351,17.1948152 5.271376,17 6,17 C8.209139,17 10,18.790861 10,21 L10,25 C10,27.209139 8.209139,29 6,29 C3.790861,29 2,27.209139 2,25 L2,17 C2,9.2680135 8.2680135,3 16,3 C23.7319865,3 30,9.2680135 30,17 L30,25 Z M6,19 C4.8954305,19 4,19.8954305 4,21 L4,25 C4,26.1045695 4.8954305,27 6,27 C7.1045695,27 8,26.1045695 8,25 L8,21 C8,19.8954305 7.1045695,19 6,19 Z M26,19 C24.8954305,19 24,19.8954305 24,21 L24,25 C24,26.1045695 24.8954305,27 26,27 C27.1045695,27 28,26.1045695 28,25 L28,21 C28,19.8954305 27.1045695,19 26,19 Z" id="&#24418;&#29366;" fill-rule="nonzero" />
    </g>
</svg>

<svg xmlns="http://www.w3.org/2000/svg" viewBox="0 0 32 32"><path fill="currentColor" d="M30 25a4 4 0 1 1-8 0v-4a4 4 0 0 1 6.001-3.464L28 17c0-6.627-5.373-12-12-12S4 10.373 4 17v.535A4 4 0 0 1 10 21v4a4 4 0 1 1-8 0v-8C2 9.268 8.268 3 16 3s14 6.268 14 14zM6 19a2 2 0 0 0-2 2v4a2 2 0 1 0 4 0v-4a2 2 0 0 0-2-2m20 0a2 2 0 0 0-2 2v4a2 2 0 1 0 4 0v-4a2 2 0 0 0-2-2"/></svg>
